X:1
T:Frog in the Well
B:Hart's #46
M:2/4
L:1/8
Q:1/8=200
K:D
|: A|dddA|BA A2|dd d/c/d/e/|fe eA|dddA|BA A2|dd e/c/d/e/|fd d :|
|: z|fa a2|fa a2|g>e f>d|ee d/c/B/A/|dA B/A/F/A/|dA B/A/F/A/|dd e/c/d/e/|fd d :|
